X: 1193
T: Fight about the Fire Side.   a Reel.
%R: reel
B: Niel Gow & Sons "Complete Repository" v.1 p.19 #3
Z: 2021 John Chambers <jc:trillian.mit.edu>
M: C|
L: 1/8
K: C
% - - - - - - - - - -
% Voice 1 formatted for proofreading.
V: 1 staves=2
c !segno! |\
GcEc Dd-d.c | GcEc GcEc | FcEc Dd-d.B | cGAF ECC :| f | e<cg>c eddf | ecgc acgc |
fage (Td>cd)e | GAcd {f}e2df || e<cg>c eddf | ecgc acgc | fage Td>cde | GAcd {cd}e2dc !segno!|]
% - - - - - - - - - -
% Voice 2 preserves the book's staff layout.
V: 2 clef=bass middle=d
z !segno! | c2c2 d2d2 | c2c2 c2c2 | d2c2 B2G2 | E2F2 c2C :| z | c'2c'2 g2G2 | c2e2 f2e2 |
d2c2 g2G2 | e2d2 c2g2 || c'2c'2 g2g2 | c2e2 f2e2 | d2c2 B2G2 | c2G2 [c2C2][c2C2] !segno! |]


